icons/linear-ele-digital-link.svg

<svg xmlns="http://www.w3.org/2000/svg" width="32px" height="32px" viewBox="0 0 32 32" version="1.1">
    <title>linear-ele-digital-link</title>
    <g id="linear-ele-digital-link" stroke-width="1" fill-rule="evenodd">
        <path d="M9.63603897,12.4644661 L11.0502525,13.8786797 L7.51471863,17.4142136 C5.56209717,19.366835 5.56209717,22.5326599 7.51471863,24.4852814 C9.46734008,26.4379028 12.633165,26.4379028 14.5857864,24.4852814 L18.1213203,20.9497475 L19.5355339,22.363961 L16,25.8994949 C13.26633,28.633165 8.83417511,28.633165 6.10050506,25.8994949 C3.36683502,23.1658249 3.36683502,18.73367 6.10050506,16 L9.63603897,12.4644661 Z M20.2426407,11.7573593 C20.633165,12.1478836 20.633165,12.7810486 20.2426407,13.1715729 L13.1715729,20.2426407 C12.7810486,20.633165 12.1478836,20.633165 11.7573593,20.2426407 C11.366835,19.8521164 11.366835,19.2189514 11.7573593,18.8284271 L18.8284271,11.7573593 C19.2189514,11.366835 19.8521164,11.366835 20.2426407,11.7573593 Z M25.8994949,6.10050506 C28.633165,8.83417511 28.633165,13.26633 25.8994949,16 L22.363961,19.5355339 L20.9497475,18.1213203 L24.4852814,14.5857864 C26.4379028,12.633165 26.4379028,9.46734008 24.4852814,7.51471863 C22.5326599,5.56209717 19.366835,5.56209717 17.4142136,7.51471863 L13.8786797,11.0502525 L12.4644661,9.63603897 L16,6.10050506 C18.73367,3.36683502 23.1658249,3.36683502 25.8994949,6.10050506 Z" id="&#24418;&#29366;" fill-rule="nonzero" />
    </g>
</svg>

<svg xmlns="http://www.w3.org/2000/svg" viewBox="0 0 32 32"><path fill="currentColor" d="m9.636 12.464 1.414 1.415-3.535 3.535a5 5 0 0 0 7.07 7.071l3.536-3.535 1.415 1.414L16 25.899A7 7 0 1 1 6.1 16zm10.607-.707a1 1 0 0 1 0 1.415l-7.071 7.07a1 1 0 0 1-1.415-1.414l7.071-7.07a1 1 0 0 1 1.415 0m5.656-5.656a7 7 0 0 1 0 9.899l-3.535 3.536-1.414-1.415 3.535-3.535a5 5 0 0 0-7.07-7.071l-3.536 3.535-1.415-1.414L16 6.101a7 7 0 0 1 9.9 0"/></svg>
